Dominus_Dark_Funeral/symbolic/actions/tab-new-symbolic.svg

<svg xmlns="http://www.w3.org/2000/svg" width="24" height="24"><g fill="gray"><path d="M7.502 4.12s-.797-.016-1.627.399c-.832.416-1.748 1.476-1.748 2.976v10.124H3.002l-.004 2.25h.004l3.375.011v-.01h14.625v-2.25h-1.125V7.494s.016-.798-.4-1.628c-.416-.832-1.475-1.747-2.975-1.747zm0 2.25h9c.75 0 .816.209.962.502.147.295.163.623.163.623v10.124H6.377V7.495c0-.75.21-.816.503-.962.295-.148.622-.163.622-.163z" font-family="sans-serif" font-weight="400" overflow="visible" style="font-variant-ligatures:normal;font-variant-position:normal;font-variant-caps:normal;font-variant-numeric:normal;font-variant-alternates:normal;font-feature-settings:normal;text-indent:0;text-decoration-line:none;text-decoration-style:solid;text-decoration-color:#000;text-transform:none;text-orientation:mixed;shape-padding:0;isolation:auto;mix-blend-mode:normal" white-space="normal"/><path d="M10.884 8.62v2.25h-2.25v2.25h2.25v2.25h2.25v-2.25h2.25v-2.25h-2.25V8.62z"/></g></svg>

<?xml version="1.0" encoding="UTF-8" standalone="no"?>
<svg
   xmlns:dc="http://purl.org/dc/elements/1.1/"
   xmlns:cc="http://creativecommons.org/ns#"
   xmlns:rdf="http://www.w3.org/1999/02/22-rdf-syntax-ns#"
   xmlns:svg="http://www.w3.org/2000/svg"
   xmlns="http://www.w3.org/2000/svg"
   xmlns:sodipodi="http://sodipodi.sourceforge.net/DTD/sodipodi-0.dtd"
   xmlns:inkscape="http://www.inkscape.org/namespaces/inkscape"
   width="24"
   height="24"
   version="1.1"
   id="svg8"
   sodipodi:docname="tab-new-symbolic.svg"
   inkscape:version="0.92.4 (5da689c313, 2019-01-14)">
  <metadata
     id="metadata14">
    <rdf:RDF>
      <cc:Work
         rdf:about="">
        <dc:format>image/svg+xml</dc:format>
        <dc:type
           rdf:resource="http://purl.org/dc/dcmitype/StillImage" />
        <dc:title></dc:title>
      </cc:Work>
    </rdf:RDF>
  </metadata>
  <defs
     id="defs12" />
  <sodipodi:namedview
     pagecolor="#ffffff"
     bordercolor="#666666"
     borderopacity="1"
     objecttolerance="10"
     gridtolerance="10"
     guidetolerance="10"
     inkscape:pageopacity="0"
     inkscape:pageshadow="2"
     inkscape:window-width="1112"
     inkscape:window-height="480"
     id="namedview10"
     showgrid="false"
     inkscape:zoom="9.8333333"
     inkscape:cx="1.0677966"
     inkscape:cy="12"
     inkscape:window-x="0"
     inkscape:window-y="25"
     inkscape:window-maximized="0"
     inkscape:current-layer="svg8" />
  <g
     id="g6"
     style="fill:#808080">
    <path
       d="m 7.502,4.12 c 0,0 -0.797,-0.016 -1.627,0.399 C 5.043,4.935 4.127,5.995 4.127,7.495 V 17.619 H 3.002 l -0.004,2.25 H 3.002 L 6.377,19.88 V 19.87 H 21.002 V 17.62 H 19.877 V 7.494 c 0,0 0.016,-0.798 -0.4,-1.628 C 19.061,5.034 18.002,4.119 16.502,4.119 Z m 0,2.25 h 9 c 0.75,0 0.816,0.209 0.962,0.502 0.147,0.295 0.163,0.623 0.163,0.623 V 17.619 H 6.377 V 7.495 C 6.377,6.745 6.587,6.679 6.88,6.533 7.175,6.385 7.502,6.37 7.502,6.37 Z"
       font-weight="400"
       overflow="visible"
       style="font-weight:400;font-family:sans-serif;font-variant-ligatures:normal;font-variant-position:normal;font-variant-caps:normal;font-variant-numeric:normal;font-variant-alternates:normal;font-feature-settings:normal;text-indent:0;text-decoration:none;text-decoration-line:none;text-decoration-style:solid;text-decoration-color:#000000;text-transform:none;text-orientation:mixed;white-space:normal;shape-padding:0;overflow:visible;isolation:auto;mix-blend-mode:normal"
       id="path2"
       inkscape:connector-curvature="0" />
    <path
       d="m 10.884,8.62 v 2.25 h -2.25 v 2.25 h 2.25 v 2.25 h 2.25 v -2.25 h 2.25 v -2.25 h -2.25 V 8.62 Z"
       id="path4"
       inkscape:connector-curvature="0" />
  </g>
</svg>
